icons/numix/16x16/mimetypes/text-x-csharp.svg

<?xml version="1.0" encoding="UTF-8" standalone="no"?>
<svg
   xmlns:dc="http://purl.org/dc/elements/1.1/"
   xmlns:cc="http://creativecommons.org/ns#"
   xmlns:rdf="http://www.w3.org/1999/02/22-rdf-syntax-ns#"
   xmlns:svg="http://www.w3.org/2000/svg"
   xmlns="http://www.w3.org/2000/svg"
   xmlns:sodipodi="http://sodipodi.sourceforge.net/DTD/sodipodi-0.dtd"
   xmlns:inkscape="http://www.inkscape.org/namespaces/inkscape"
   width="16"
   height="16"
   viewBox="0 0 16 16"
   id="svg2"
   version="1.1"
   inkscape:version="0.48.5 r10040"
   sodipodi:docname="text-x-csharp.svg">
  <metadata
     id="metadata20">
    <rdf:RDF>
      <cc:Work
         rdf:about="">
        <dc:format>image/svg+xml</dc:format>
        <dc:type
           rdf:resource="http://purl.org/dc/dcmitype/StillImage" />
      </cc:Work>
    </rdf:RDF>
  </metadata>
  <defs
     id="defs18" />
  <sodipodi:namedview
     pagecolor="#ffffff"
     bordercolor="#666666"
     borderopacity="1"
     objecttolerance="10"
     gridtolerance="10"
     guidetolerance="10"
     inkscape:pageopacity="0"
     inkscape:pageshadow="2"
     inkscape:window-width="1280"
     inkscape:window-height="970"
     id="namedview16"
     showgrid="true"
     inkscape:zoom="14.75"
     inkscape:cx="-1.9642579"
     inkscape:cy="15.17318"
     inkscape:window-x="0"
     inkscape:window-y="0"
     inkscape:window-maximized="1"
     inkscape:current-layer="svg2">
    <inkscape:grid
       type="xygrid"
       id="grid3008" />
  </sodipodi:namedview>
  <path
     style="fill:#2d2d2d;fill-opacity:1"
     d="M 2.667969,-4.464e-4 C 2.324219,-4.464e-4 2,0.3378116 2,0.6964463 L 2,15.303108 C 2,15.641365 2.34375,16 2.667969,16 l 10.664062,0 C 13.65625,16 14,15.641365 14,15.303108 L 14,3.9995534 10,-4.464e-4 z"
     id="path4-1"
     inkscape:connector-curvature="0"
     sodipodi:nodetypes="ssssssccs" />
  <path
     style="fill:#000000;fill-opacity:0.19599998"
     d="m 10.583223,3.3315844 0.0154,0.01953 0.04005,-0.01953 z m 0.02978,0.667969 3.387,3.664062 0,-3.664062 z"
     id="path6"
     inkscape:connector-curvature="0"
     sodipodi:nodetypes="cccccccc" />
  <path
     style="fill:#ffffff;fill-opacity:0.39200003"
     d="m 10,-4.464e-4 3.996396,3.9999998 -3.383784,0 C 10.313513,3.9995534 10,3.6824364 10,3.3833374 z"
     id="path8"
     inkscape:connector-curvature="0"
     sodipodi:nodetypes="ccssc" />
  <g
     style="fill:#dcdcdc"
     id="g10"
     transform="matrix(1.106628,0,0,1.106628,-0.8530243,-0.99526445)">
    <path
       d="M 3.667969,9.289062 C 3.667969,8.96875 3.71875,8.652344 3.816406,8.339844 3.917969,8.023438 4.0625,7.742188 4.25,7.496094 4.441406,7.25 4.675781,7.050781 4.949219,6.894531 5.226562,6.742188 5.539062,6.667969 5.890625,6.667969 c 0.417969,0 0.773437,0.105469 1.074219,0.316406 0.304687,0.214844 0.53125,0.488281 0.675781,0.832031 L 6.945312,8.355469 C 6.894531,8.207031 6.828125,8.082031 6.742188,7.984375 6.660156,7.882812 6.570312,7.800781 6.46875,7.742188 6.371094,7.679688 6.273438,7.640625 6.167969,7.613281 6.0625,7.585938 5.960938,7.570312 5.867188,7.570312 c -0.214844,0 -0.402344,0.050782 -0.5625,0.15625 -0.164063,0.101563 -0.296876,0.238282 -0.40625,0.40625 -0.105469,0.164063 -0.1875,0.351563 -0.242188,0.5625 -0.054688,0.207032 -0.078125,0.414063 -0.078125,0.625 0,0.230469 0.027344,0.453126 0.089844,0.671876 0.066406,0.210937 0.15625,0.402343 0.269531,0.5625 0.117188,0.164062 0.257812,0.292968 0.417969,0.394531 0.160156,0.09766 0.339843,0.148437 0.53125,0.148437 0.097656,0 0.203125,-0.01563 0.308593,-0.04687 0.101563,-0.02734 0.203126,-0.07422 0.300782,-0.140625 C 6.59375,10.847656 6.6875,10.765625 6.769531,10.667969 6.851562,10.5625 6.921875,10.441406 6.972656,10.296875 l 0.738282,0.480469 c -0.070313,0.199218 -0.171876,0.375 -0.304688,0.527344 -0.132812,0.148437 -0.285156,0.273437 -0.453125,0.375 C 6.78125,11.785156 6.605469,11.863281 6.417969,11.917969 6.226562,11.972656 6.042969,12 5.859375,12 5.535156,12 5.238281,11.921875 4.96875,11.761719 4.703125,11.605469 4.472656,11.398438 4.277344,11.148438 4.082031,10.890625 3.933594,10.601562 3.824219,10.28125 3.71875,9.957031 3.667969,9.625 3.667969,9.289062"
       id="path12"
       inkscape:connector-curvature="0" />
    <path
       d="m 12.332031,8.816406 -0.949219,0 -0.214843,1.011719 0.859375,0 0,0.742187 -1.015625,0 -0.300781,1.386719 -0.707032,0 0.304688,-1.386719 -0.785156,0 -0.292969,1.386719 -0.707031,0 0.300781,-1.386719 -0.734375,0 0,-0.742187 0.890625,0 0.21875,-1.011719 -0.800781,0 0,-0.699218 0.949218,0 0.308594,-1.421876 0.707031,0 -0.316406,1.421876 0.789063,0 0.300781,-1.421876 0.707031,0 -0.308594,1.421876 0.796875,0 0,0.699218 m -1.863281,1.011719 0.207031,-1.011719 -0.777343,0 -0.214844,1.011719 0.785156,0"
       id="path14"
       inkscape:connector-curvature="0" />
  </g>
</svg>

<svg width="16" xmlns="http://www.w3.org/2000/svg" height="16" viewBox="0 0 16 16" xmlns:xlink="http://www.w3.org/1999/xlink">
<path style="fill:#2d2d2d" d="M 2.667969 0.332031 C 2.324219 0.332031 2 0.65625 2 1 L 2 15 C 2 15.324219 2.34375 15.667969 2.667969 15.667969 L 13.332031 15.667969 C 13.65625 15.667969 14 15.324219 14 15 L 14 4.667969 L 9.667969 0.332031 Z "/>
<path style="fill:#000;fill-opacity:.196" d="M 9.667969 4 L 9.6875 4.019531 L 9.738281 4 Z M 10.332031 4.667969 L 14 8.332031 L 14 4.667969 Z "/>
<path style="fill:#fff;fill-opacity:.392" d="M 9.667969 0.332031 L 14 4.667969 L 10.332031 4.667969 C 10.007812 4.667969 9.667969 4.324219 9.667969 4 Z "/>
<g style="fill:#dcdcdc">
<path d="M 3.667969 9.289062 C 3.667969 8.96875 3.71875 8.652344 3.816406 8.339844 C 3.917969 8.023438 4.0625 7.742188 4.25 7.496094 C 4.441406 7.25 4.675781 7.050781 4.949219 6.894531 C 5.226562 6.742188 5.539062 6.667969 5.890625 6.667969 C 6.308594 6.667969 6.664062 6.773438 6.964844 6.984375 C 7.269531 7.199219 7.496094 7.472656 7.640625 7.816406 L 6.945312 8.355469 C 6.894531 8.207031 6.828125 8.082031 6.742188 7.984375 C 6.660156 7.882812 6.570312 7.800781 6.46875 7.742188 C 6.371094 7.679688 6.273438 7.640625 6.167969 7.613281 C 6.0625 7.585938 5.960938 7.570312 5.867188 7.570312 C 5.652344 7.570312 5.464844 7.621094 5.304688 7.726562 C 5.140625 7.828125 5.007812 7.964844 4.898438 8.132812 C 4.792969 8.296875 4.710938 8.484375 4.65625 8.695312 C 4.601562 8.902344 4.578125 9.109375 4.578125 9.320312 C 4.578125 9.550781 4.605469 9.773438 4.667969 9.992188 C 4.734375 10.203125 4.824219 10.394531 4.9375 10.554688 C 5.054688 10.71875 5.195312 10.847656 5.355469 10.949219 C 5.515625 11.046875 5.695312 11.097656 5.886719 11.097656 C 5.984375 11.097656 6.089844 11.082031 6.195312 11.050781 C 6.296875 11.023438 6.398438 10.976562 6.496094 10.910156 C 6.59375 10.847656 6.6875 10.765625 6.769531 10.667969 C 6.851562 10.5625 6.921875 10.441406 6.972656 10.296875 L 7.710938 10.777344 C 7.640625 10.976562 7.539062 11.152344 7.40625 11.304688 C 7.273438 11.453125 7.121094 11.578125 6.953125 11.679688 C 6.78125 11.785156 6.605469 11.863281 6.417969 11.917969 C 6.226562 11.972656 6.042969 12 5.859375 12 C 5.535156 12 5.238281 11.921875 4.96875 11.761719 C 4.703125 11.605469 4.472656 11.398438 4.277344 11.148438 C 4.082031 10.890625 3.933594 10.601562 3.824219 10.28125 C 3.71875 9.957031 3.667969 9.625 3.667969 9.289062 "/>
<path d="M 12.332031 8.816406 L 11.382812 8.816406 L 11.167969 9.828125 L 12.027344 9.828125 L 12.027344 10.570312 L 11.011719 10.570312 L 10.710938 11.957031 L 10.003906 11.957031 L 10.308594 10.570312 L 9.523438 10.570312 L 9.230469 11.957031 L 8.523438 11.957031 L 8.824219 10.570312 L 8.089844 10.570312 L 8.089844 9.828125 L 8.980469 9.828125 L 9.199219 8.816406 L 8.398438 8.816406 L 8.398438 8.117188 L 9.347656 8.117188 L 9.65625 6.695312 L 10.363281 6.695312 L 10.046875 8.117188 L 10.835938 8.117188 L 11.136719 6.695312 L 11.84375 6.695312 L 11.535156 8.117188 L 12.332031 8.117188 L 12.332031 8.816406 M 10.46875 9.828125 L 10.675781 8.816406 L 9.898438 8.816406 L 9.683594 9.828125 L 10.46875 9.828125 "/>
</g>
</svg>
